X: 198
T:The Virginia
M:4/4
L:1/8
F:http://blackrosetheband.googlepages.com/ABCTUNES.ABC May 2009
R:reel
K:Dmaj
"G"DBBA ~B3A | BAdB AFEF | "D"DF~F2 ~A3B | AFBF AFEF | 
"G"DBBA ~B3B | BAdB ABde | "D"~f3e dffe | "(Bm)"dBAF "A"BE~E2 :||
|:"D"defe d3A | "G"BAFA "A"dAFA | "D"defe defg | "G"a2bf "A"afeg |
"D"fedf "A"efdB | "D"AF~F2 ABde | ~f3e dffe | dBAF "A"BE~E2 :||

